X:238
T: Besenbinders Tochter (3-41), S. 124
N: P1013
O: Lothringen
S: PINCK, Louis: Verklingende Weisen, Bd3, Metz 1933]
R: Beruf, Liebe]
M: 2/4
L: 1/16
K: F
C2 | F3GA2B2 | c4c2
c2 | d4f2d2 | c4z2
c2 | B3Bc2B2 | A4A2
F2 | G2A2B3G | F4z2

@@@ Tune index: 7788
